X: 20581
Q: "Moderato"
M: 2/4
L: 1/16
K: C
e3 d c2 e2 | c3 B A2 G2 | F3 G F2 E2 |
c2 A2 A2 (dc) | B3 c d3 c | B2 G2 G2 (ef) |
g2 e2 e2 c2 | A3 B Hc3 A | G3 c f2 e2 |
{e/}d2 c2 c2 zg | (agab) c'2a2 | (g3f) e2ze | fefg af |
e3f g2a2 | e4 {e/}d2cd | "Da Capo"c6 |]




